fs/slide_search_24_filled.svg

<svg viewBox="0 0 24 24" fill="none" xmlns="http://www.w3.org/2000/svg" height="1em" width="1em">
  <path d="M2 6.75C2 5.23122 3.23122 4 4.75 4H19.25C20.7688 4 22 5.23122 22 6.75V17.25C22 18.7688 20.7688 20 19.25 20H12.4749L10.4253 17.9504C10.7931 17.2126 11 16.3805 11 15.5H15.25C15.6642 15.5 16 15.1642 16 14.75C16 14.3358 15.6642 14 15.25 14H10.793C10.6408 13.4619 10.4088 12.9574 10.1105 12.5H17.25C17.6642 12.5 18 12.1642 18 11.75C18 11.3358 17.6642 11 17.25 11H8.66308C7.76841 10.37 6.67741 10 5.5 10C4.17037 10 2.95094 10.4718 2 11.2572V6.75ZM6.75 8C6.33579 8 6 8.33579 6 8.75C6 9.16421 6.33579 9.5 6.75 9.5H13.25C13.6642 9.5 14 9.16421 14 8.75C14 8.33579 13.6642 8 13.25 8H6.75ZM5.5 20C6.47187 20 7.37179 19.6919 8.1074 19.1681L10.7197 21.7803C11.0126 22.0732 11.4874 22.0732 11.7803 21.7803C12.0732 21.4874 12.0732 21.0126 11.7803 20.7197L9.16806 18.1074C9.69191 17.3718 10 16.4719 10 15.5C10 13.0147 7.98528 11 5.5 11C3.01472 11 1 13.0147 1 15.5C1 17.9853 3.01472 20 5.5 20ZM5.5 18.5C3.84315 18.5 2.5 17.1569 2.5 15.5C2.5 13.8431 3.84315 12.5 5.5 12.5C7.15685 12.5 8.5 13.8431 8.5 15.5C8.5 17.1569 7.15685 18.5 5.5 18.5Z" fill="#212121"/>
</svg>

<svg viewBox="0 0 24 24" fill="none" xmlns="http://www.w3.org/2000/svg" height="1em" width="1em">
  <path d="M2 6.75A2.75 2.75 0 0 1 4.75 4h14.5A2.75 2.75 0 0 1 22 6.75v10.5A2.75 2.75 0 0 1 19.25 20h-6.775l-2.05-2.05c.368-.737.575-1.57.575-2.45h4.25a.75.75 0 0 0 0-1.5h-4.457a5.471 5.471 0 0 0-.682-1.5h7.139a.75.75 0 0 0 0-1.5H8.663c-.895-.63-1.986-1-3.163-1-1.33 0-2.55.472-3.5 1.257V6.75ZM6.75 8a.75.75 0 0 0 0 1.5h6.5a.75.75 0 0 0 0-1.5h-6.5ZM5.5 20a4.48 4.48 0 0 0 2.607-.832l2.613 2.612a.75.75 0 1 0 1.06-1.06l-2.612-2.613A4.5 4.5 0 1 0 5.5 20Zm0-1.5a3 3 0 1 1 0-6 3 3 0 0 1 0 6Z" fill="#212121"/>
</svg>
